32x32/apps/shutter.svg

<svg xmlns="http://www.w3.org/2000/svg" width="32" height="32" version="1.1">
 <path style="opacity:0.2" d="M 24.501953,3.0022919 C 20.58931,3.0479309 14.552891,4.1442774 12.666016,6.410495 l -0.0059,0 C 11.154548,8.6167938 10.964483,17.251081 11.355469,16.719089 14.559753,12.335751 22.239198,6.9220017 26.826172,4.7464326 29.302651,3.5665293 27.54512,2.9667324 24.501953,3.0022919 Z M 9.8867188,7.9339326 C 8.8982102,8.1032042 4.930036,10.860543 5.84375,15.814792 l 0.00195,0.002 c 0.8673234,2.531094 6.4227669,5.897163 6.2304689,5.263672 -1.577905,-5.224376 -2.1486353,-8.60581 -1.972656,-13.060547 0.0033,-0.082564 -0.07558,-0.1101149 -0.2167972,-0.085937 z M 20.722656,10.152683 c -2.648083,0.192175 -7.304511,4.736977 -6.65039,4.710937 5.416449,-0.188311 8.799541,0.12327 13.02539,1.447266 0.626933,0.19604 -0.676868,-5.71301 -6.375,-6.158203 z m -2.865234,4.730468 c -0.137775,0.0076 -0.197088,0.04587 -0.150391,0.113282 3.095252,4.481756 4.669965,7.515961 5.861328,11.8125 0.176924,0.637355 4.393077,-3.673503 1.669922,-8.738282 -1.395953,-1.871634 -6.397232,-3.238007 -7.378906,-3.1875 l -0.002,0 z M 3.515625,15.736667 C 3.0062453,15.669127 1.8112494,21.277003 6.5703125,24.127292 9.0309582,25.138358 15.202149,23.146669 14.603516,22.871433 9.6640297,20.627195 6.7683032,18.829912 3.5605469,15.760105 3.5457629,15.745835 3.532056,15.738847 3.515625,15.736667 Z m 15.955078,2.738281 c -0.0306,-0.008 -0.05241,0.007 -0.0625,0.04687 -1.371161,5.285205 -2.637097,8.465575 -5.101562,12.169922 -0.368277,0.54658 5.62173,0.981476 7.671875,-4.398437 l 0.002,0.002 c 0.538909,-2.451365 -2.050722,-7.699215 -2.509766,-7.820313 z m -1.505859,3.376953 c -0.01252,-0.0031 -0.02653,-0.001 -0.04492,0.0078 -4.890457,2.357286 -8.116592,3.437125 -12.5195314,3.923828 -0.6500099,0.07533 2.8839172,4.969981 8.2851564,3.080078 l 0.0059,-0.002 c 2.277514,-1.205873 4.663531,-6.911347 4.275391,-7.009766 l -0.002,0 z"/>
 <path style="fill:#37a0f2" d="m 24.501025,2.0012086 c -3.912643,0.045639 -9.948975,1.1421038 -11.83585,3.4083215 l -0.0041,0 C 11.155467,7.6158288 10.963794,16.250276 11.35478,15.718284 14.559064,11.334946 22.239206,5.9212229 26.82618,3.7456538 29.302659,2.5657506 27.544262,1.9657191 24.501095,2.0012786 Z M 20.723109,9.151607 c -2.648083,0.1921752 -7.305823,4.737323 -6.651702,4.711283 5.416449,-0.188311 8.799628,0.123863 13.025477,1.447859 0.626933,0.19604 -0.675504,-5.7138784 -6.373636,-6.1590721 z M 17.858421,13.8834 c -0.139693,0.0073 -0.197556,0.04427 -0.150561,0.11211 3.095252,4.481756 4.668226,7.517193 5.859589,11.813732 0.176924,0.637355 4.394189,-3.673898 1.671034,-8.738676 -1.396579,-1.872473 -6.401623,-3.238854 -7.380131,-3.187054 z m 1.611378,3.591579 c -0.0306,-0.008 -0.0523,0.0066 -0.06239,0.04649 -1.371161,5.285205 -2.636902,8.46638 -5.101367,12.170727 -0.368277,0.54658 5.623053,0.980336 7.673198,-4.399577 l 0.0014,0.0027 c 0.538909,-2.451365 -2.051464,-7.69989 -2.510508,-7.820988 z m -1.504221,3.376892 c -0.01252,-0.0031 -0.02773,-6.39e-4 -0.04612,0.0082 -4.890457,2.357286 -8.1162689,3.437091 -12.5192083,3.923794 -0.6500099,0.07533 2.8837862,4.968739 8.2850253,3.078836 l 0.0054,-0.0014 c 2.277514,-1.205873 4.663435,-6.911282 4.275295,-7.0097 z"/>
 <path style="fill:#4f4f4f" d="M 9.8859071,6.9340385 C 8.8973986,7.1033101 4.93017,9.8602769 5.843884,14.814526 l 0.00139,0.0027 c 0.8673234,2.531094 6.423568,5.895737 6.23127,5.262246 -1.577905,-5.224376 -2.1481349,-8.604278 -1.972156,-13.0590148 0.0033,-0.082564 -0.07716,-0.1103114 -0.2183759,-0.086134 z M 3.5149793,14.736128 c -0.5093797,-0.06754 -1.7031179,5.541191 3.0559452,8.39148 2.4606457,1.011066 8.6308715,-0.981176 8.0322385,-1.256412 -4.9394859,-2.244238 -7.8343146,-4.040692 -11.0420709,-7.110499 -0.014784,-0.01427 -0.029686,-0.02243 -0.046117,-0.02461 z"/>
 <path style="fill:#f4f4f7;opacity:0.1" d="M 24.501953 2.0019531 C 20.58931 2.0475921 14.552891 3.1439386 12.666016 5.4101562 L 12.660156 5.4101562 C 11.497835 7.113407 11.12555 12.606541 11.193359 14.796875 C 11.239043 12.242301 11.647227 7.8945293 12.660156 6.4101562 L 12.666016 6.4101562 C 14.552891 4.1439387 20.58931 3.0475921 24.501953 3.0019531 C 25.876587 2.9858905 26.960828 3.1056245 27.539062 3.34375 C 28.853265 2.4307043 27.176927 1.970696 24.501953 2.0019531 z M 9.8867188 6.9335938 C 8.9599919 7.0922859 5.4152152 9.5263838 5.7285156 13.912109 C 5.9645501 10.159182 9.0332476 8.0797416 9.8867188 7.9335938 C 10.003882 7.9135341 10.063973 7.9391562 10.083984 7.9921875 C 10.088682 7.6696755 10.090349 7.3528388 10.103516 7.0195312 C 10.106816 6.9369673 10.027935 6.9094163 9.8867188 6.9335938 z M 10.083984 9.0566406 C 10.036703 12.733143 10.552876 15.823593 11.789062 20.091797 C 11.978676 20.157641 12.10464 20.173862 12.076172 20.080078 C 10.747593 15.68121 10.139977 12.583195 10.083984 9.0566406 z M 20.722656 9.1523438 C 20.069879 9.1997167 19.295038 9.5123838 18.507812 9.9550781 C 16.897287 11.168064 15.368478 12.462439 14.033203 13.751953 C 14.010248 13.818616 14.012715 13.865652 14.072266 13.863281 C 14.319524 13.854685 14.542192 13.852167 14.78125 13.845703 C 16.104191 12.503096 18.881494 10.285959 20.722656 10.152344 C 24.853622 10.475095 26.654941 13.65056 27.105469 15.308594 C 27.709645 15.442245 26.391852 9.5952766 20.722656 9.1523438 z M 3.515625 14.736328 C 3.2831017 14.705497 2.9140303 15.862262 3.0273438 17.394531 C 3.0909669 16.399415 3.3384259 15.712833 3.515625 15.736328 C 3.532056 15.738508 3.5457629 15.745496 3.5605469 15.759766 C 6.5517883 18.622369 9.2935253 20.381982 13.652344 22.425781 C 14.352079 22.174632 14.775852 21.95033 14.603516 21.871094 C 13.63464 21.430888 12.762983 21.008633 11.933594 20.589844 C 11.982933 20.756449 12.024698 20.909651 12.076172 21.080078 C 12.219949 21.553726 9.1530127 19.791813 7.2324219 17.814453 C 5.9672275 16.917532 4.78555 15.932088 3.5605469 14.759766 C 3.5457629 14.745496 3.532056 14.738508 3.515625 14.736328 z M 18.279297 14.84375 C 18.297317 14.870485 18.316075 14.897191 18.333984 14.923828 C 19.911257 15.145762 23.995401 16.403912 25.238281 18.070312 C 25.798175 19.111655 26.054427 20.117447 26.123047 21.058594 C 26.209419 19.848425 26.002719 18.492085 25.238281 17.070312 C 24.711859 16.364508 23.672231 15.731961 22.529297 15.21875 C 21.180153 15.004722 19.79351 14.890908 18.279297 14.84375 z M 19.398438 17.558594 C 18.031144 22.820566 16.765065 25.996139 14.306641 29.691406 C 14.235473 29.79703 14.453803 29.88528 14.783203 29.941406 C 16.931826 26.545963 18.130896 23.444926 19.408203 18.521484 C 19.418293 18.481614 19.440103 18.466609 19.470703 18.474609 C 19.861653 18.577744 21.782663 22.389323 22.015625 25.035156 C 22.175678 23.788783 21.678322 21.984482 21.070312 20.443359 C 20.582617 19.51204 20.029507 18.55976 19.398438 17.558594 z M 17.964844 20.851562 C 17.952324 20.848463 17.938312 20.850536 17.919922 20.859375 C 16.498554 21.544499 15.225567 22.109596 14.015625 22.595703 C 14.214767 22.687907 14.397429 22.777459 14.603516 22.871094 C 15.107047 23.102604 10.82719 24.542659 7.9882812 24.394531 C 7.1566152 24.551031 6.30705 24.682981 5.4003906 24.783203 C 5.2193323 24.804186 5.3924219 25.210469 5.8105469 25.728516 C 9.9440513 25.227027 13.104775 24.166546 17.730469 21.949219 C 17.966953 21.316966 18.070322 20.877813 17.966797 20.851562 L 17.964844 20.851562 z"/>
</svg>

<svg xmlns="http://www.w3.org/2000/svg" width="32" height="32"><path style="opacity:.2" d="M24.502 3.002c-3.913.046-9.95 1.142-11.836 3.408h-.006c-1.505 2.207-1.696 10.841-1.305 10.31C14.56 12.335 22.24 6.921 26.826 4.745c2.477-1.18.72-1.78-2.324-1.744zM9.887 7.934c-.989.17-4.957 2.927-4.043 7.88l.002.003c.867 2.53 6.422 5.897 6.23 5.263-1.578-5.224-2.148-8.605-1.972-13.06.003-.083-.076-.11-.217-.086zm10.836 2.219c-2.648.192-7.305 4.737-6.65 4.71 5.416-.188 8.799.124 13.025 1.448.627.196-.677-5.713-6.375-6.158zm-2.866 4.73c-.137.008-.197.046-.15.113 3.095 4.482 4.67 7.516 5.861 11.813.177.637 4.393-3.674 1.67-8.738-1.396-1.872-6.397-3.238-7.379-3.188h-.002zm-14.341.854c-.51-.068-1.705 5.54 3.054 8.39 2.461 1.011 8.632-.98 8.034-1.256-4.94-2.244-7.836-4.041-11.043-7.11a.076.076 0 0 0-.045-.024zm15.955 2.738c-.03-.008-.053.007-.063.047-1.371 5.285-2.637 8.465-5.101 12.17-.369.546 5.621.981 7.672-4.399l.002.002c.538-2.451-2.051-7.699-2.51-7.82zm-1.506 3.377c-.013-.003-.027-.001-.045.008-4.89 2.357-8.117 3.437-12.52 3.924-.65.075 2.884 4.97 8.286 3.08l.005-.002c2.278-1.206 4.664-6.912 4.276-7.01h-.002z"/><path style="fill:#37a0f2" d="M24.501 2.001c-3.913.046-9.949 1.142-11.836 3.409h-.004c-1.506 2.206-1.697 10.84-1.306 10.308 3.204-4.383 10.884-9.797 15.471-11.972 2.477-1.18.718-1.78-2.325-1.745zm-3.778 7.15c-2.648.193-7.306 4.738-6.652 4.712 5.417-.188 8.8.124 13.026 1.448.627.196-.676-5.714-6.374-6.16zm-2.865 4.732c-.14.008-.197.045-.15.113 3.095 4.481 4.668 7.517 5.86 11.813.176.638 4.394-3.674 1.67-8.738-1.396-1.873-6.401-3.24-7.38-3.187zm1.612 3.592c-.03-.008-.053.007-.063.046-1.37 5.286-2.636 8.467-5.101 12.171-.368.547 5.623.98 7.673-4.4l.002.003c.539-2.451-2.052-7.7-2.51-7.82zm-1.504 3.377c-.013-.003-.028 0-.047.008-4.89 2.357-8.116 3.437-12.519 3.924-.65.075 2.884 4.969 8.285 3.079l.006-.002c2.277-1.206 4.663-6.911 4.275-7.01z"/><path style="fill:#4f4f4f" d="M9.886 6.934c-.989.17-4.956 2.926-4.042 7.88l.001.003c.868 2.531 6.424 5.896 6.232 5.262-1.578-5.224-2.149-8.604-1.973-13.059.004-.082-.077-.11-.218-.086zm-6.371 7.802c-.51-.067-1.703 5.541 3.056 8.392 2.46 1.01 8.63-.982 8.032-1.257-4.94-2.244-7.834-4.04-11.042-7.11a.081.081 0 0 0-.046-.025z"/><path style="fill:#f4f4f7;opacity:.1" d="M24.502 2.002c-3.913.046-9.95 1.142-11.836 3.408h-.006c-1.162 1.703-1.534 7.197-1.467 9.387.046-2.555.454-6.902 1.467-8.387h.006c1.887-2.266 7.923-3.362 11.836-3.408 1.375-.016 2.459.104 3.037.342 1.314-.913-.362-1.373-3.037-1.342zM9.887 6.934c-.927.158-4.472 2.592-4.158 6.978.236-3.753 3.304-5.832 4.158-5.978.117-.02.177.005.197.058.005-.322.006-.64.02-.972.003-.083-.076-.11-.217-.086zm.197 2.123c-.047 3.676.469 6.767 1.705 11.035.19.066.316.082.287-.012-1.328-4.399-1.936-7.497-1.992-11.023zm10.639.095c-.653.048-1.428.36-2.215.803a48.575 48.575 0 0 0-4.475 3.797c-.023.067-.02.114.04.111.247-.008.47-.01.708-.017 1.323-1.343 4.1-3.56 5.942-3.694 4.13.323 5.932 3.499 6.382 5.157.605.133-.713-5.714-6.382-6.157zM3.516 14.736c-.233-.03-.602 1.126-.489 2.659.064-.996.311-1.682.489-1.659.016.003.03.01.045.024 2.99 2.862 5.733 4.622 10.091 6.666.7-.251 1.124-.476.952-.555-.97-.44-1.841-.862-2.67-1.281.049.166.09.32.142.49.144.474-2.923-1.288-4.844-3.266a32.058 32.058 0 0 1-3.671-3.054.076.076 0 0 0-.045-.024zm14.763.108.055.08c1.577.222 5.661 1.48 6.904 3.146a7.375 7.375 0 0 1 .885 2.989c.086-1.21-.12-2.567-.885-3.989-.526-.705-1.566-1.338-2.709-1.851-1.349-.214-2.735-.328-4.25-.375zm1.12 2.715c-1.368 5.262-2.634 8.437-5.092 12.132-.072.106.147.194.476.25 2.149-3.395 3.348-6.496 4.625-11.42.01-.04.032-.054.063-.046.39.103 2.312 3.914 2.545 6.56.16-1.246-.338-3.05-.946-4.592a41.606 41.606 0 0 0-1.672-2.884zm-1.434 3.293c-.013-.004-.027-.001-.045.007a63.313 63.313 0 0 1-3.904 1.737c.199.092.381.181.588.275.503.232-3.777 1.672-6.616 1.524-.831.156-1.681.288-2.588.388-.18.021-.008.427.41.946 4.134-.502 7.295-1.562 11.92-3.78.237-.632.34-1.071.237-1.097h-.002z"/></svg>
